!!!SOCIAL_FUNCTION:	game songs
!!!PDT:	1943
!!!OTL: No_63_Slahal_Game_Song_(e).krn
!!!REG: British Columbia
**kern	**kern
*staff2	*staff1
=1-	=1-
*clefF4	*clefF4
*k[f#]	*k[f#]
*M2/4	*M2/4
8GG/L	8A\L
8GG/J	8A\J
8GG/L	8B\
8GG/J	8r
=2	=2
8GG/L	4.A^\
8GG/J	.
8GG/L	.
8GG/J	8r
=3	=3
2r	8B\L
.	8A\J
.	8A\L
.	16F#\Jk
.	16r
=4	=4
2r	4.A^\
.	8r
=5	=5
2r	8B\L
.	8A\J
.	8B\
.	8r
=6	=6
2r	4.A^\
.	8r
=7	=7
2r	8B\L
.	8A\J
.	8A\L
.	16F#\Jk
.	16r
=8	=8
2r	4.A^\
.	8r
=9	=9
2r	8B\L
.	8A\J
.	8A\
.	8r
=10	=10
2r	4.A^\
.	8r
=11	=11
2r	8B\L
.	8A\J
.	8A\
.	8r
=12	=12
2r	4.A^\
.	8r
=13	=13
2r	8B\L
.	8A\J
.	8B\
.	8r
=14	=14
2r	4.A^\
.	8r
=15	=15
2r	8B\L
.	8A\J
.	8F#\
.	8r
=16	=16
2r	4.A^\
.	8r
=17	=17
2r	8B\L
.	8A\J
.	8B\
.	8r
=18	=18
2r	4.A^\
.	8r
=19	=19
2r	8B\L
.	8A\J
.	8G\
.	8r
=20	=20
2r	4.A^\
.	8r
=21	=21
2r	8B\L
.	8A\J
.	8B\
.	8r
=22	=22
2r	4.A^\
.	8r
=23	=23
2r	8B\L
.	8A\J
.	8F#\
.	8r
=24	=24
2r	4.A^\
.	8r
=25	=25
2r	8B\L
.	8A\J
.	8B\
.	8r
=26	=26
2r	4.A^\
.	8r
=27	=27
2r	8B\L
.	8A\J
.	8F#\
.	8r
=28	=28
2r	4.A^\
.	8r
==	==
*-	*-
